app/public/images/pot.svg

<?xml version="1.0" encoding="UTF-8"?>
<svg width="63px" height="50px" viewBox="-32 -25 126 100" version="1.1" xmlns="http://www.w3.org/2000/svg" xmlns:xlink="http://www.w3.org/1999/xlink">
    <title>Pot</title>
    <desc>white pot SVG graphic.</desc>
    <defs></defs>
    <g id="Page-1" stroke="none" stroke-width="1" fill="none" fill-rule="evenodd">
        <g id="Artboard" transform="translate(-9.000000, -15.000000)" fill="#FFFFFF" fill-rule="nonzero">
            <path d="M62,30 L62,33 L69,33 C70.6568542,33 72,34.3431458 72,36 C72,37.6568542 70.6568542,39 69,39 L62,39 L62,57 C62,61.418278 58.418278,65 54,65 L26,65 C21.581722,65 18,61.418278 18,57 L18,39 L12,39 C10.3431458,39 9,37.6568542 9,36 C9,34.3431458 10.3431458,33 12,33 L18,33 L18,30 L62,30 Z M18.1323083,27 C18.9324752,24.0728778 23.4479194,21.7299219 34.0016567,21.1424016 C34.0005543,21.0950679 34,21.0475987 34,21 C34,17.6862915 36.6862915,15 40,15 C43.3137085,15 46,17.6862915 46,21 C46,21.0684075 45.9988552,21.1365476 45.9965837,21.2044022 C55.8382892,21.8810197 60.0932233,24.1668868 60.8676917,27 L18.1323083,27 Z M37.5071353,21.017123 C38.1526296,21.0057709 38.8167923,21 39.5,21 C40.4203647,21 41.3061678,21.0104728 42.1583296,21.0309543 C42.1637957,20.9657917 42.166584,20.8998675 42.166584,20.833292 C42.166584,19.5446504 41.1219336,18.5 39.833292,18.5 C38.5446504,18.5 37.5,19.5446504 37.5,20.833292 C37.5,20.895161 37.502408,20.9564675 37.5071353,21.017123 Z M23,57.5 C23,58.3284271 23.6715729,59 24.5,59 C25.3284271,59 26,58.3284271 26,57.5 L26,35.5 C26,34.6715729 25.3284271,34 24.5,34 C23.6715729,34 23,34.6715729 23,35.5 L23,57.5 Z" id="white-pot"></path>
        </g>
    </g>
</svg>

<?xml version="1.0" encoding="UTF-8"?>
<svg class="img-pot" width="100%" height="100%" version="1.1" viewBox="-42 -25 150 100" xmlns="http://www.w3.org/2000/svg">
    <title>Pot</title>
    <desc>white pot SVG graphic.</desc>
    <g fill="none" fill-rule="evenodd">
        <g transform="translate(-9 -15)" fill="#fff" fill-rule="nonzero">
        <path d="m62 30v3h7c1.6569 0 3 1.3431 3 3s-1.3431 3-3 3h-7v18c0 4.4183-3.5817 8-8 8h-28c-4.4183 0-8-3.5817-8-8v-18h-6c-1.6569 0-3-1.3431-3-3s1.3431-3 3-3h6v-3h44zm-43.868-3c0.80017-2.9271 5.3156-5.2701 15.869-5.8576-0.0011024-0.047334-0.0016567-0.094803-0.0016567-0.1424 0-3.3137 2.6863-6 6-6s6 2.6863 6 6c0 0.068408-0.0011448 0.13655-0.0034163 0.2044 9.8417 0.67662 14.097 2.9625 14.871 5.7956h-42.735zm19.375-5.9829c0.64549-0.011352 1.3097-0.017123 1.9929-0.017123 0.92036 0 1.8062 0.010473 2.6583 0.030954 0.0054661-0.065163 0.0082544-0.13109 0.0082544-0.19766 0-1.2886-1.0447-2.3333-2.3333-2.3333s-2.3333 1.0447-2.3333 2.3333c0 0.061869 0.002408 0.12318 0.0071353 0.18383zm-14.507 36.483c0 0.82843 0.67157 1.5 1.5 1.5s1.5-0.67157 1.5-1.5v-22c0-0.82843-0.67157-1.5-1.5-1.5s-1.5 0.67157-1.5 1.5v22z"/>
        </g>
    </g>
</svg>
